resources/svg/cup.svg

<svg xmlns="http://www.w3.org/2000/svg" viewBox="0 0 15 15" fill="currentColor"><path d="M7 4H8V0H7V4Z" fill="black"/><path d="M5 2V4H4V2H5Z" fill="black"/><path fill-rule="evenodd" clip-rule="evenodd" d="M0 6.5C0 5.67157 0.671573 5 1.5 5H10.5C11.1531 5 11.7087 5.4174 11.9146 6H13.5C14.3284 6 15 6.67157 15 7.5V9.5C15 10.3284 14.3284 11 13.5 11H12V11.5C12 13.433 10.433 15 8.5 15H3.5C1.567 15 0 13.433 0 11.5V6.5ZM12 10H13.5C13.7761 10 14 9.77614 14 9.5V7.5C14 7.22386 13.7761 7 13.5 7H12V10Z" fill="black"/></svg>

<svg xmlns="http://www.w3.org/2000/svg" viewBox="0 0 15 15" fill="currentColor"><path d="M7 4h1V0H7v4zM5 2v2H4V2h1z" fill="currentColor"/><path fill-rule="evenodd" clip-rule="evenodd" d="M0 6.5A1.5 1.5 0 011.5 5h9a1.5 1.5 0 011.415 1H13.5A1.5 1.5 0 0115 7.5v2a1.5 1.5 0 01-1.5 1.5H12v.5A3.5 3.5 0 018.5 15h-5A3.5 3.5 0 010 11.5v-5zM12 10h1.5a.5.5 0 00.5-.5v-2a.5.5 0 00-.5-.5H12v3z" fill="currentColor"/></svg>
